X: 3
T: The Mountain Top
R: reel
M: 4/4
L: 1/8
K: Gmaj
|: B2AG EGDE | G2 (3B^cd edgd | BGAG EGDG | (3BcB Ad BGGA |
B2AG EGDE | G2 (3B^cd edgd | BG{B}AG EGDG| (3BcB Ac BG G2 ||
Bd (3B^cd edBA | (3B^cd ef gfed | Bdd^c d2 ge | dBAc BGGA |
Bd (3B^cd edBA | (3B^cd ef g2ga | bgaf gfed | (3efg fa gedc ||


Tune 529	Setting 27502

